X:419
T: Weist mir drei schne Blmelein (5-14), S. 31
N: P0689
O: Lothringen
S: MERKELBACH-PINCK, Angelika: Verklingende Weisen, Bd 5, Kassel 1962]
R: geistliches, religiöses Lied]
M: 4/4
L: 1/8
K: G
D2 | G4AG2F | E2E2D4 | E4F2zF | G4z2
G2 | F2G2A2A2 | G3AB2
G2 | F2G2A2A2 | G3AB4
G4F4 | E4D4 | G3AB2B2 | A4G4 | z6

